X:1
T:Title
%%score 1 2 3
L:1/8
Q:1/4=120
M:2/4
K:G
V:1 treble nm="Grand Piano"
V:2 bass nm="Grand Piano, Melody"
V:3 bass nm="Grand Piano"
V:1
 z4 | z4 | z4 | z4 | z4 | z4 | z4 | z4 | z2 z B | d>e d2- | d2 B>c | d3 d | e2 e2 | d2 z d | g3 B | %15
 e3 e | f/e/f/g/ a2 | d2 B2- | B2 z2 | z4 | z4 | z4 | z4 | z4 | z2 z B | e2 e>d | e2 z B | d2 g2 | %28
 d2 g2 | d2 ef | g2 z B | A3 B | d3 B | G2 d2 | B3 B | d2 g2 | d2 g2 | d2 ef | g2 z B | A3 B | %40
 d3 B | G2 d2 | B4 |] %43
V:2
 z2 z G, | G,2 B,2 | D3 E/D/ | B,>G, A,A, | G,3[K:treble] D | G2 G2 | F>G AD | E2 (3EDE | %8
 D3[K:bass] D, | G,>A, B,C | D4 | G3 B, | C2 C2 | B,2 z G, | D3 D | G3 D | DE/D/[K:bass] B,G, | %17
 A,2 G,2 | G,2 z B, | D2 D>B, | D2 z G, | G,2 G,2 | G,2 z B, | D2 D>B, | D2 z2 | z4 | %26
 z2 z[K:treble] D | G2 D2 | G2 D2 | GF ED | B,2 z G, | D3 D | G3 D | B,2 [D,A,]2 | %34
 G,3[K:treble] D | G2 D2 | G2 D2 | GF ED | B,2 z G, | D3 D | G3 D | B,2 [D,A,]2 | G,4 |] %43
V:3
 z2 z G, | G,2 G,2 | G,3 G, | G,3 D, | G,3 G, | G,2 G,2 | D2 D,2 | C2 C,2 | D,3 G, | G,3 G, | G,4 | %11
 .G,2 z B, | A,2 A,2 | B,2 z [G,B,] | G,3 B, | C3 C | B,C D2 | D,2 G,2- | G,2 z2 | z4 | z2 z G, | %21
 C,2 C,2 | C,2 z2 | z4 | z4 | z4 | z2 z G, | G,2 G,2 | G,2 G,2 | G,B, CD | G,2 z G, | D,3 G, | %32
 G,3 F, | E,2 D,2 | G,3 G, | G,2 G,2 | G,2 G,2 | G,B, CD | G,2 z G, | D,3 G, | G,3 F, | E,2 D,2 | %42
 G,2 z2 |] %43

